X: 0
T: Anachreon in Heaven
Z: Transcribed to fit into a sackpipa
M: 3/4
Q: "BPM=100"
K: Amin
G>E |
C2 E2 G2 | c3 zed | c2 E2 ^F2 | G3 zG>G |
e3 d c2 | B3 zAB | c2 c2 G2 | E2 C2 :|
K: A
c2c | cd3e2 e4(dc) | B2c2d2 d4(cB) |
c2B2A2 G3FG2 | A2C2D2 E4EE |
A2A2A2 F2F2F2 | B2(dc)(BA) {A2}G4E2 |
A3B (cd) e2c2A2 | (AB)c2(BA) A4EE |
A2A2A2 F2F2F2 | B3cB2 {A2}G4E2 |
A3B (cd) e2c2A2 |Ac3(BA) A4 |
